; G-Code generated by Simplify3D(R) Version 4.1.2
; Feb 5, 2023 at 5:37:33 PM
; Settings Summary
;   processName,Process1
;   applyToModels,rw_base,rw_cover
;   profileName,Prusa Research Original Prusa i3 MK2 (modified)
;   profileVersion,2016-11-25 08:00:00
;   baseProfile,
;   printMaterial,PLA
;   printQuality,Fast
;   printExtruders,
;   extruderName,Primary Extruder
;   extruderToolheadNumber,0
;   extruderDiameter,0.4
;   extruderAutoWidth,1
;   extruderWidth,0.48
;   extrusionMultiplier,1.2
;   extruderUseRetract,1
;   extruderRetractionDistance,1.5
;   extruderExtraRestartDistance,0
;   extruderRetractionZLift,0.6
;   extruderRetractionSpeed,1800
;   extruderUseCoasting,1
;   extruderCoastingDistance,0.2
;   extruderUseWipe,1
;   extruderWipeDistance,2
;   primaryExtruder,0
;   layerHeight,0.3
;   topSolidLayers,3
;   bottomSolidLayers,3
;   perimeterOutlines,2
;   printPerimetersInsideOut,1
;   startPointOption,2
;   startPointOriginX,0
;   startPointOriginY,0
;   sequentialIslands,0
;   spiralVaseMode,0
;   firstLayerHeightPercentage,150
;   firstLayerWidthPercentage,150
;   firstLayerUnderspeed,0.1
;   useRaft,0
;   raftExtruder,0
;   raftTopLayers,1
;   raftBaseLayers,1
;   raftOffset,3
;   raftSeparationDistance,0.14
;   raftTopInfill,100
;   aboveRaftSpeedMultiplier,0.3
;   useSkirt,0
;   skirtExtruder,0
;   skirtLayers,1
;   skirtOutlines,2
;   skirtOffset,2
;   usePrimePillar,0
;   primePillarExtruder,999
;   primePillarWidth,12
;   primePillarLocation,7
;   primePillarSpeedMultiplier,1
;   useOozeShield,0
;   oozeShieldExtruder,999
;   oozeShieldOffset,2
;   oozeShieldOutlines,1
;   oozeShieldSidewallShape,1
;   oozeShieldSidewallAngle,30
;   oozeShieldSpeedMultiplier,1
;   infillExtruder,0
;   internalInfillPattern,Rectilinear
;   externalInfillPattern,Rectilinear
;   infillPercentage,50
;   outlineOverlapPercentage,20
;   infillExtrusionWidthPercentage,100
;   minInfillLength,5
;   infillLayerInterval,1
;   internalInfillAngles,45,-45
;   overlapInternalInfillAngles,0
;   externalInfillAngles,45,-45
;   generateSupport,0
;   supportExtruder,0
;   supportInfillPercentage,10
;   supportExtraInflation,1
;   supportBaseLayers,1
;   denseSupportExtruder,0
;   denseSupportLayers,0
;   denseSupportInfillPercentage,10
;   supportLayerInterval,2
;   supportHorizontalPartOffset,0
;   supportUpperSeparationLayers,1
;   supportLowerSeparationLayers,1
;   supportType,1
;   supportGridSpacing,1
;   maxOverhangAngle,70
;   supportAngles,0
;   temperatureName,Heated Bed,Primary Extruder
;   temperatureNumber,0,0
;   temperatureSetpointCount,1,1
;   temperatureSetpointLayers,1,1
;   temperatureSetpointTemperatures,70,200
;   temperatureStabilizeAtStartup,1,1
;   temperatureHeatedBed,1,0
;   fanLayers,1,2
;   fanSpeeds,0,100
;   blipFanToFullPower,0
;   adjustSpeedForCooling,1
;   minSpeedLayerTime,10
;   minCoolingSpeedSlowdown,25
;   increaseFanForCooling,0
;   minFanLayerTime,45
;   maxCoolingFanSpeed,100
;   increaseFanForBridging,0
;   bridgingFanSpeed,100
;   use5D,1
;   relativeEdistances,0
;   allowEaxisZeroing,1
;   independentExtruderAxes,0
;   includeM10123,0
;   stickySupport,1
;   applyToolheadOffsets,0
;   gcodeXoffset,0
;   gcodeYoffset,0
;   gcodeZoffset,0
;   overrideMachineDefinition,1
;   machineTypeOverride,0
;   strokeXoverride,250
;   strokeYoverride,210
;   strokeZoverride,200
;   originOffsetXoverride,0
;   originOffsetYoverride,0
;   originOffsetZoverride,0
;   homeXdirOverride,-1
;   homeYdirOverride,-1
;   homeZdirOverride,-1
;   flipXoverride,1
;   flipYoverride,-1
;   flipZoverride,1
;   toolheadOffsets,0,0|0,0|0,0|0,0|0,0|0,0
;   overrideFirmwareConfiguration,1
;   firmwareTypeOverride,RepRap (Marlin/Repetier/Sprinter)
;   GPXconfigOverride,r2
;   baudRateOverride,250000
;   overridePrinterModels,1
;   printerModelsOverride
;   startingGcode,M115 U3.0.7 ; use the latest firmware version,G28 W ; home all axes without mesh bed leveling,G80 ; run mesh bed leveling routine,G1 Y-3.0 F1000.0 ; prepare to prime,G92 E0 ; reset extrusion distance,G1 X60.0 E9.0  F1000.0 ; priming,G1 X100.0 E12.5  F1000.0 ; priming
;   layerChangeGcode,
;   retractionGcode,
;   toolChangeGcode,
;   endingGcode,M106 S0 ; turn off cooling fan,M104 S0 ; turn off extruder,M140 S0 ; turn off bed,G1 X0 Y200 ; part removal,M84 ; disable motors
;   exportFileFormat,gcode
;   celebration,0
;   celebrationSong,Random Song
;   postProcessing,
;   defaultSpeed,4000
;   outlineUnderspeed,0.3
;   solidInfillUnderspeed,0.8
;   supportUnderspeed,0.8
;   rapidXYspeed,4800
;   rapidZspeed,1000
;   minBridgingArea,50
;   bridgingExtraInflation,0
;   bridgingExtrusionMultiplier,1
;   bridgingSpeedMultiplier,1
;   useFixedBridgingAngle,0
;   fixedBridgingAngle,0
;   applyBridgingToPerimeters,0
;   filamentDiameters,1.75|1.75|1.75|1.75|1.75|1.75
;   filamentPricesPerKg,46|46|46|46|46|46
;   filamentDensities,1.25|1.25|1.25|1.25|1.25|1.25
;   useMinPrintHeight,0
;   minPrintHeight,0
;   useMaxPrintHeight,0
;   maxPrintHeight,0
;   useDiaphragm,0
;   diaphragmLayerInterval,20
;   robustSlicing,1
;   mergeAllIntoSolid,0
;   onlyRetractWhenCrossingOutline,1
;   retractBetweenLayers,1
;   useRetractionMinTravel,0
;   retractionMinTravel,3
;   retractWhileWiping,1
;   onlyWipeOutlines,1
;   avoidCrossingOutline,1
;   maxMovementDetourFactor,30
;   toolChangeRetractionDistance,12
;   toolChangeExtraRestartDistance,-0.5
;   toolChangeRetractionSpeed,600
;   externalThinWallType,0
;   internalThinWallType,2
;   thinWallAllowedOverlapPercentage,25
;   singleExtrusionMinLength,1
;   singleExtrusionMinPrintingWidthPercentage,50
;   singleExtrusionMaxPrintingWidthPercentage,200
;   singleExtrusionEndpointExtension,0.2
;   horizontalSizeCompensation,0
G90
M82
M106 S0
M140 S70
M190 S70
M104 S200 T0
M109 S200 T0
M115 U3.0.7 ; use the latest firmware version
G28 W ; home all axes without mesh bed leveling
G80 ; run mesh bed leveling routine
G1 Y-3.0 F1000.0 ; prepare to prime
G92 E0 ; reset extrusion distance
G1 X60.0 E9.0  F1000.0 ; priming
G1 X100.0 E12.5  F1000.0 ; priming
; process Process1
; layer 1, Z = 0.450
T0
G92 E0.0000
G1 E-1.5000 F1800
; feature inner perimeter
; tool H0.450 W0.720
G1 Z0.600 F1000
G1 X73.580 Y19.248 F4800
G1 Z0.450 F1000
G1 E0.0000 F1800
G92 E0.0000
G1 X176.420 Y19.248 E16.6235 F260
G1 X176.420 Y93.195 E28.5767
G1 X174.920 Y93.195 E28.8191
G1 X174.920 Y93.587 E28.8825
G1 X75.080 Y93.587 E45.0211
G1 X75.080 Y93.195 E45.0845
G1 X73.580 Y93.195 E45.3270
G1 X73.580 Y19.448 E57.2478
G1 X73.580 Y19.248 F260
; feature outer perimeter
G1 X74.140 Y18.528 F4800
G92 E0.0000
G1 X175.860 Y18.528 E16.4425 F120
G1 X175.860 Y18.070 E16.5165
G1 X177.140 Y18.070 E16.7234
G1 X177.140 Y93.915 E28.9833
G1 X175.640 Y93.915 E29.2258
G1 X175.640 Y94.307 E29.2892
G1 X74.360 Y94.307 E45.6605
G1 X74.360 Y93.915 E45.7239
G1 X72.860 Y93.915 E45.9664
G1 X72.860 Y18.070 E58.2263
G1 X74.140 Y18.070 E58.4332
G1 X74.140 Y18.328 E58.4749
G1 X74.140 Y18.528 F120
G1 X76.140 Y18.528 F120
; feature inner perimeter
G1 X113.023 Y56.948 F4800
G92 E0.0000
G1 X111.447 Y60.042 E0.5613 F260
G1 X110.905 Y63.470 E1.1223
G1 X111.447 Y66.899 E1.6834
G1 X113.023 Y69.992 E2.2447
G1 X115.478 Y72.447 E2.8058
G1 X118.571 Y74.023 E3.3669
G1 X122.000 Y74.566 E3.9281
G1 X125.429 Y74.023 E4.4893
G1 X128.522 Y72.447 E5.0503
G1 X130.977 Y69.992 E5.6115
G1 X132.553 Y66.899 E6.1727
G1 X133.096 Y63.470 E6.7339
G1 X132.553 Y60.042 E7.2950
G1 X130.977 Y56.948 E7.8562
G1 X128.522 Y54.494 E8.4173
G1 X125.429 Y52.918 E8.9784
G1 X124.268 Y52.734 E9.1683
G1 X122.000 Y52.375 E9.5396
G1 X118.571 Y52.918 E10.1008
G1 X115.478 Y54.494 E10.6619
G1 X113.165 Y56.807 E11.1906
G1 X113.023 Y56.948 F260
; feature outer perimeter
G1 X113.613 Y57.377 F4800
G92 E0.0000
G1 X112.140 Y60.267 E0.5244 F120
G1 X111.634 Y63.470 E1.0486
G1 X112.140 Y66.674 E1.5728
G1 X113.613 Y69.564 E2.0972
G1 X115.907 Y71.857 E2.6215
G1 X118.796 Y73.329 E3.1457
G1 X122.000 Y73.837 E3.6700
G1 X125.204 Y73.329 E4.1943
G1 X128.093 Y71.857 E4.7185
G1 X130.387 Y69.564 E5.2428
G1 X131.860 Y66.674 E5.7671
G1 X132.367 Y63.470 E6.2915
G1 X131.860 Y60.267 E6.8157
G1 X130.387 Y57.377 E7.3400
G1 X128.093 Y55.084 E7.8643
G1 X125.204 Y53.611 E8.3885
G1 X124.156 Y53.445 E8.5600
G1 X122.000 Y53.104 E8.9128
G1 X118.796 Y53.611 E9.4371
G1 X115.907 Y55.084 E9.9614
G1 X113.755 Y57.235 E10.4533
G1 X113.613 Y57.377 F120
G1 X112.705 Y59.159 F120
; feature gap fill
; tool H0.450 W0.480
G1 X113.613 Y57.377 F4800
G1 X115.907 Y55.084
G1 X118.796 Y53.611
G1 X122.000 Y53.104
G1 X122.149 Y53.127
G1 X176.327 Y18.526
G92 E0.0000
G1 X176.444 Y18.643 E0.0179 F400
G1 X176.586 Y18.785 F400
; feature solid layer
; tool H0.450 W0.720
G1 X175.249 Y19.824 F4800
G92 E0.0000
G1 X175.844 Y20.419 E0.1361 F320
G1 X175.844 Y21.437 E0.3006
G1 X174.231 Y19.824 E0.6695
G1 X173.212 Y19.824 E0.8341
G1 X175.844 Y22.455 E1.4357
G1 X175.844 Y23.474 E1.6002
G1 X172.194 Y19.824 E2.4346
G1 X171.176 Y19.824 E2.5992
G1 X175.844 Y24.492 E3.6663
G1 X175.844 Y25.510 E3.8309
G1 X170.158 Y19.824 E5.1308
G1 X169.139 Y19.824 E5.2954
G1 X175.844 Y26.528 E6.8281
G1 X175.844 Y27.547 E6.9927
G1 X168.121 Y19.824 E8.7581
G1 X167.103 Y19.824 E8.9227
G1 X175.844 Y28.565 E10.9209
G1 X175.844 Y29.583 E11.0855
G1 X166.085 Y19.824 E13.3164
G1 X165.066 Y19.824 E13.4810
G1 X175.844 Y30.601 E15.9448
G1 X175.844 Y31.619 E16.1093
G1 X164.048 Y19.824 E18.8058
G1 X163.030 Y19.824 E18.9704
G1 X175.844 Y32.638 E21.8997
G1 X175.844 Y33.656 E22.0643
G1 X162.012 Y19.824 E25.2263
G1 X160.994 Y19.824 E25.3909
G1 X175.844 Y34.674 E28.7857
G1 X175.844 Y35.692 E28.9503
G1 X159.975 Y19.824 E32.5779
G1 X158.957 Y19.824 E32.7425
G1 X175.844 Y36.711 E36.6028
G1 X175.844 Y37.729 E36.7674
G1 X157.939 Y19.824 E40.8605
G1 X156.921 Y19.824 E41.0251
G1 X175.844 Y38.747 E45.3510
G1 X175.844 Y39.765 E45.5156
G1 X155.902 Y19.824 E50.0742
G1 X154.884 Y19.824 E50.2388
G1 X175.844 Y40.784 E55.0302
G1 X175.844 Y41.802 E55.1948
G1 X153.866 Y19.824 E60.2190
G1 X152.848 Y19.824 E60.3836
G1 X175.844 Y42.820 E65.6405
G1 X175.844 Y43.838 E65.8051
G1 X151.829 Y19.824 E71.2948
G1 X150.811 Y19.824 E71.4594
G1 X175.844 Y44.856 E77.1819
G1 X175.844 Y45.875 E77.3465
G1 X149.793 Y19.824 E83.3017
G1 X148.775 Y19.824 E83.4663
G1 X175.844 Y46.893 E89.6543
G1 X175.844 Y47.911 E89.8189
G1 X147.757 Y19.824 E96.2397
G1 X146.738 Y19.824 E96.4043
G1 X175.844 Y48.929 E103.0579
G1 X175.844 Y49.948 E103.2225
G1 X145.720 Y19.824 E110.1088
G1 X144.702 Y19.824 E110.2734
G1 X175.844 Y50.966 E117.3925
G1 X175.844 Y51.984 E117.5570
G1 X143.684 Y19.824 E124.9089
G1 X142.665 Y19.824 E125.0735
G1 X175.844 Y53.002 E132.6581
G1 X175.844 Y54.021 E132.8227
G1 X141.647 Y19.824 E140.6401
G1 X140.629 Y19.824 E140.8047
G1 X175.844 Y55.039 E148.8548
G1 X175.844 Y56.057 E149.0194
G1 X139.611 Y19.824 E157.3024
G1 X138.592 Y19.824 E157.4670
G1 X175.844 Y57.075 E165.9827
G1 X175.844 Y58.094 E166.1472
G1 X137.574 Y19.824 E174.8957
G1 X136.556 Y19.824 E175.0603
G1 X175.844 Y59.112 E184.0415
G1 X175.844 Y60.130 E184.2061
G1 X135.538 Y19.824 E193.4201
G1 X134.519 Y19.824 E193.5847
G1 X175.844 Y61.148 E203.0315
G1 X175.844 Y62.166 E203.1961
G1 X133.501 Y19.824 E212.8756
G1 X132.483 Y19.824 E213.0402
G1 X175.844 Y63.185 E222.9525
G1 X175.844 Y64.203 E223.1171
G1 X131.465 Y19.824 E233.2621
G1 X130.447 Y19.824 E233.4267
G1 X175.844 Y65.221 E243.8046
G1 X175.844 Y66.239 E243.9692
G1 X129.428 Y19.824 E254.5798
G1 X128.410 Y19.824 E254.7444
G1 X175.844 Y67.258 E265.5877
G1 X175.844 Y68.276 E265.7523
G1 X127.392 Y19.824 E276.8285
G1 X126.374 Y19.824 E276.9930
G1 X175.844 Y69.294 E288.3020
G1 X175.844 Y70.312 E288.4665
G1 X125.355 Y19.824 E300.0082
G1 X124.337 Y19.824 E300.1728
G1 X175.844 Y71.331 E311.9473
G1 X175.844 Y72.349 E312.1118
G1 X123.319 Y19.824 E324.1191
G1 X122.301 Y19.824 E324.2836
G1 X175.844 Y73.367 E336.5236
G1 X175.844 Y74.385 E336.6882
G1 X121.282 Y19.824 E349.1610
G1 X120.264 Y19.824 E349.3255
G1 X175.844 Y75.404 E362.0311
G1 X175.844 Y76.422 E362.1957
G1 X119.246 Y19.824 E375.1339
G1 X118.228 Y19.824 E375.2985
G1 X175.844 Y77.440 E388.4696
G1 X175.844 Y78.458 E388.6342
G1 X117.210 Y19.824 E402.0380
G1 X116.191 Y19.824 E402.2026
G1 X175.844 Y79.476 E415.8392
G1 X175.844 Y80.495 E416.0037
G1 X115.173 Y19.824 E429.8731
G1 X114.155 Y19.824 E430.0377
G1 X175.844 Y81.513 E444.1398
G1 X175.844 Y82.531 E444.3044
G1 X113.137 Y19.824 E458.6393
G1 X112.118 Y19.824 E458.8039
G1 X175.844 Y83.549 E473.3715
G1 X175.844 Y84.568 E473.5361
G1 X111.100 Y19.824 E488.3365
G1 X110.082 Y19.824 E488.5011
G1 X175.844 Y85.586 E503.5343
G1 X175.844 Y86.604 E503.6989
G1 X109.064 Y19.824 E518.9649
G1 X108.045 Y19.824 E519.1295
G1 X175.844 Y87.622 E534.6282
G1 X175.844 Y88.641 E534.7928
G1 X107.027 Y19.824 E550.5243
G1 X106.009 Y19.824 E550.6889
G1 X175.844 Y89.659 E566.6531
G1 X175.844 Y90.677 E566.8177
G1 X104.991 Y19.824 E583.0147
G1 X103.972 Y19.824 E583.1793
G1 X175.844 Y91.695 E599.6091
G1 X175.844 Y92.619 E599.7585
G1 X175.750 Y92.619 E599.7737
G1 X102.954 Y19.824 E616.4147
G1 X101.936 Y19.824 E616.5793
G1 X174.731 Y92.619 E633.2203
G1 X174.344 Y92.619 E633.2829
G1 X174.344 Y93.011 E633.3463
G1 X174.105 Y93.011 E633.3849
G1 X100.918 Y19.824 E650.1155
G1 X99.900 Y19.824 E650.2801
G1 X173.087 Y93.011 E667.0108
G1 X172.069 Y93.011 E667.1754
G1 X98.881 Y19.824 E683.9060
G1 X97.863 Y19.824 E684.0706
G1 X171.051 Y93.011 E700.8013
G1 X170.032 Y93.011 E700.9659
G1 X96.845 Y19.824 E717.6965
G1 X95.827 Y19.824 E717.8611
G1 X169.014 Y93.011 E734.5918
G1 X167.996 Y93.011 E734.7564
G1 X94.808 Y19.824 E751.4870
G1 X93.790 Y19.824 E751.6516
G1 X127.078 Y53.112 E759.2612
G1 X125.609 Y52.363 E759.5277
G1 X125.255 Y52.307 E759.5857
G1 X92.772 Y19.824 E767.0113
G1 X91.754 Y19.824 E767.1759
G1 X124.045 Y52.115 E774.5578
G1 X122.836 Y51.924 E774.7558
G1 X90.735 Y19.824 E782.0939
G1 X89.717 Y19.824 E782.2585
G1 X121.728 Y51.835 E789.5762
G1 X120.849 Y51.974 E789.7200
G1 X88.699 Y19.824 E797.0695
G1 X87.681 Y19.824 E797.2341
G1 X119.970 Y52.113 E804.6155
G1 X119.091 Y52.252 E804.7593
G1 X86.662 Y19.824 E812.1725
G1 X85.644 Y19.824 E812.3371
G1 X118.254 Y52.433 E819.7915
G1 X117.579 Y52.777 E819.9139
G1 X84.626 Y19.824 E827.4470
G1 X83.608 Y19.824 E827.6116
G1 X116.905 Y53.121 E835.2232
G1 X116.230 Y53.464 E835.3456
G1 X82.590 Y19.824 E843.0358
G1 X81.571 Y19.824 E843.2004
G1 X115.556 Y53.808 E850.9692
G1 X115.136 Y54.022 E851.0454
G1 X114.943 Y54.214 E851.0893
G1 X80.553 Y19.824 E858.9509
G1 X79.535 Y19.824 E859.1155
G1 X114.434 Y54.723 E867.0935
G1 X113.925 Y55.232 E867.2099
G1 X78.517 Y19.824 E875.3042
G1 X77.498 Y19.824 E875.4688
G1 X113.416 Y55.741 E883.6796
G1 X112.907 Y56.250 E883.7959
G1 X76.480 Y19.824 E892.1231
G1 X75.462 Y19.824 E892.2876
G1 X112.448 Y56.809 E900.7426
G1 X112.104 Y57.484 E900.8649
G1 X74.444 Y19.824 E909.4740
G1 X74.156 Y19.824 E909.5205
G1 X74.156 Y20.554 E909.6386
G1 X111.760 Y58.158 E918.2349
G1 X111.417 Y58.833 E918.3573
G1 X74.156 Y21.572 E926.8750
G1 X74.156 Y22.591 E927.0396
G1 X111.073 Y59.508 E935.4788
G1 X110.892 Y59.862 E935.5430
G1 X110.826 Y60.279 E935.6114
G1 X74.156 Y23.609 E943.9942
G1 X74.156 Y24.627 E944.1588
G1 X110.687 Y61.158 E952.5098
G1 X110.548 Y62.038 E952.6537
G1 X74.156 Y25.645 E960.9729
G1 X74.156 Y26.664 E961.1375
G1 X110.409 Y62.917 E969.4249
G1 X110.321 Y63.470 E969.5155
G1 X110.392 Y63.918 E969.5888
G1 X74.156 Y27.682 E977.8724
G1 X74.156 Y28.700 E978.0370
G1 X110.584 Y65.128 E986.3643
G1 X110.775 Y66.337 E986.5623
G1 X74.156 Y29.718 E994.9334
G1 X74.156 Y30.737 E995.0980
G1 X111.302 Y67.882 E1003.5894
